X:256
T:Royne des fleurs que je désire tant!  (Chanson 4)
S:from bay4.MID
C:Manuscript de Bayeux (fin XVe)
R:Chanson
M:4/4
L:1/8
Q:1/4=104
K:G 
V:1
c3B/2A/2 G2 A2 | B3A B2zd | e3d cB/2A/2 B2 | A3/2B<cB/2 d4 | 
d4 d2 e2 | f3e f2zf | a2 b2 a2 g2 | fd e2 d4 | 
a4 g2 f2 | e3d2<e2f | g3f e2 e2 | dB c2 B3A | 
B3z d4 | d2 dd e2 e/2d/2e/2f/2 | g3f e2 d2 | cA B2 A4 | 
f4 g2 gg | a2 a/2g/2f/2e/2 d2za | a2 g2 fd e2 | d4 e4 | 
d2 c2 B2zB | d2 f2 e2 d2 | cA B2 A4 | f4 g2 gg | 
a2 a/2g/2f/2e/2 d2za | a2 g2 fd e2 | d4 e4 | d2 c2 B2zB | 
d2 f2 e2 d2 | cA B2 A4 |]
V:2
C3B,/2A,/2 G,2 A,2 | B,3A, B,2zD | E3D CB,/2A,/2 B,2 | A,3/2B,<CB,/2 D4 |





